X: 11840
T: Elsie Marley
R: jig
M: 6/8
K: Gmixolydian
|:G2g gdB|gdB gdB|G2g gdB|f>gf fcA|
G2g gdB|gdB gdB|cac BgB|A2f fcA:|

